public/icon-white.svg

<?xml version="1.0" encoding="utf-8"?>
<!--
    Credis: https://www.svgrepo.com/svg/481378/wolf-4, https://icooon-mono.com/13563-%e7%8b%bc%e3%82%a2%e3%82%a4%e3%82%b3%e3%83%b34/
    Author: Icooon Mono
    License: https://icooon-mono.com/license/

    Note from Vovk.ts author: This is an unofficial logo that's temporarily used until a custom one is designed. 
-->
<!DOCTYPE svg PUBLIC "-//W3C//DTD SVG 1.1//EN" "http://www.w3.org/Graphics/SVG/1.1/DTD/svg11.dtd">
<!-- Uploaded to: SVG Repo, www.svgrepo.com, Generator: SVG Repo Mixer Tools -->
<svg height="800px" width="800px" version="1.1" id="_x32_" xmlns="http://www.w3.org/2000/svg" xmlns:xlink="http://www.w3.org/1999/xlink" 
	 viewBox="0 0 512 512"  xml:space="preserve">
<style type="text/css">
	.st0{fill:#ffffff;}
</style>
<g>
	<path class="st0" d="M483.009,360.176c-1.424-13.064-3.35-25.629-5.698-37.614c-5.947-30.987-14.822-58.301-23.956-81.165
		c-19.686-48.919-41.045-77.566-41.045-77.566s9.886-14.242,12.484-67.52c0.248-3.682,0.331-7.453,0.417-11.478
		c1.088-43.307-15.412-71.954-28.398-81.337c-5.861-4.352-10.973-4.688-13.404-0.753c-3.096,4.778-14.238,21.195-27.138,39.789
		c-1.174,1.596-2.348,3.273-3.518,5.031c-21.028,30.406-45.07,64.748-45.07,64.748H256h-51.684c0,0-24.042-34.341-45.069-64.748
		c-1.17-1.758-2.344-3.435-3.517-5.031C142.829,23.94,131.687,7.522,128.591,2.744c-2.429-3.935-7.542-3.599-13.404,0.753
		c-12.986,9.383-29.486,38.03-28.398,81.337c0.086,4.025,0.168,7.796,0.417,11.478c2.597,53.278,12.483,67.52,12.483,67.52
		s-21.359,28.648-41.045,77.566c-9.133,22.864-18.009,50.178-23.956,81.165c-2.347,11.984-4.274,24.55-5.697,37.614
		c-0.086,0.589-0.086,1.26-0.168,1.849l1.174-0.09l0.667-0.081h1.006l47.078-2.928l-6.282,50.758l49.589-7.706l8.377,36.272
		l36.309-19.142c11.607,31.143,26.868,70.678,33.257,81.075c10.938,17.85,35.02,12.754,52.534,2.561
		c1.297-0.761,2.376-1.448,3.346-2.103c0.969,0.654,2.041,1.342,3.354,2.103c17.51,10.193,41.585,15.289,52.526-2.561
		c6.389-10.406,21.743-49.974,33.424-81.116l36.386,19.184l8.377-36.272l49.589,7.706l-6.283-50.758l47.078,2.928h1.007l0.666,0.081
		l1.174,0.09C483.094,361.436,483.094,360.765,483.009,360.176z M128.845,146.056c-12.823-14.814-18.21-50.93-13.866-67.839
		c2.724-10.66,13.182-15.068,19.727-7.542c6.56,7.534,29.568,49.638,29.568,49.638S132.072,144.445,128.845,146.056z
		 M168.045,329.386c0,0-13.96-29.318-16.753-40.484c34.901,0,48.865,19.543,54.448,25.13l8.376,18.152L168.045,329.386z
		 M283.638,456.066c-10.671,13.596-20.635,14.022-27.642,14.022c-7.006,0-16.962-0.426-27.646-14.022
		c-8.561-10.888-1.559-24.14,9.35-24.14c3.89,0,18.295,0,18.295,0s14.414,0,18.303,0
		C285.212,431.926,292.218,445.178,283.638,456.066z M343.955,329.386l-46.072,2.798l8.377-18.152
		c5.583-5.587,19.547-25.13,54.448-25.13C357.915,300.067,343.955,329.386,343.955,329.386z M383.143,146.056
		c-3.223-1.611-35.42-25.743-35.42-25.743s23.003-42.104,29.555-49.638c6.548-7.526,17.003-3.117,19.739,7.542
		C401.365,95.126,395.965,131.241,383.143,146.056z"/>
</g>
</svg>

<?xml version="1.0" encoding="utf-8"?>
<svg xmlns="http://www.w3.org/2000/svg" width="800" height="800" viewBox="0 0 512 512">
  <path fill="#ffffff" fill-rule="evenodd" d="M256.00,112.31L204.32,112.31C204.32,112.31 180.27,77.97 159.25,47.56C158.08,45.80 156.90,44.13 155.73,42.53C142.83,23.94 131.69,7.52 128.59,2.74C126.16,-1.19 121.05,-0.85 115.19,3.50C102.20,12.88 85.70,41.53 86.79,84.83C86.88,88.86 86.96,92.63 87.21,96.31C89.80,149.59 99.69,163.83 99.69,163.83C99.69,163.83 78.33,192.48 58.64,241.40C49.51,264.26 40.64,291.58 34.69,322.56C33.24,323.97 33.19,328.25 36.73,329.72L77.11,349.50C73.54,350.16 67.04,356.49 67.75,356.50C67.02,357.92 64.85,360.03 66.95,363.62L166.74,419.11C178.35,450.25 193.61,489.79 200.00,500.18C210.94,518.03 235.02,512.94 252.53,502.74C253.83,501.98 254.91,501.30 255.88,500.64C257.09,501.30 258.17,501.98 259.47,502.74C276.98,512.94 301.06,518.03 312.00,500.18C318.39,489.79 333.65,450.25 345.26,419.11L445.05,363.62C447.15,360.03 444.98,357.92 444.25,356.50C444.96,356.49 438.46,350.16 434.89,349.50L475.27,329.72C478.81,328.25 478.76,323.97 477.31,322.56C471.37,291.58 462.49,264.26 453.36,241.40C433.67,192.48 412.31,163.83 412.31,163.83C412.31,163.83 422.20,149.59 424.79,96.31C425.04,92.63 425.12,88.86 425.21,84.83C426.30,41.53 409.80,12.88 396.81,3.50C390.95,-0.85 385.84,-1.19 383.41,2.74C380.31,7.52 369.17,23.94 356.27,42.53C355.10,44.13 353.92,45.80 352.75,47.56C331.73,77.97 307.68,112.31 307.68,112.31L256.00,112.31ZM128.845,146.056c-12.823-14.814-18.21-50.93-13.866-67.839 c2.724-10.66,13.182-15.068,19.727-7.542c6.56,7.534,29.568,49.638,29.568,49.638S132.072,144.445,128.845,146.056z M168.045,329.386c0,0-13.96-29.318-16.753-40.484c34.901,0,48.865,19.543,54.448,25.13l8.376,18.152L168.045,329.386z M283.638,456.066c-10.671,13.596-20.635,14.022-27.642,14.022c-7.006,0-16.962-0.426-27.646-14.022 c-8.561-10.888-1.559-24.14,9.35-24.14c3.89,0,18.295,0,18.295,0s14.414,0,18.303,0 C285.212,431.926,292.218,445.178,283.638,456.066z M343.955,329.386l-46.072,2.798l8.377-18.152 c5.583-5.587,19.547-25.13,54.448-25.13C357.915,300.067,343.955,329.386,343.955,329.386z M383.143,146.056 c-3.223-1.611-35.42-25.743-35.42-25.743s23.003-42.104,29.555-49.638c6.548-7.526,17.003-3.117,19.739,7.542 C401.365,95.126,395.965,131.241,383.143,146.056z"/>
</svg>
